src/images/networks/mantle.svg

<svg xmlns="http://www.w3.org/2000/svg" width="512" height="512" fill="none"><circle cx="256" cy="256" r="256" fill="#000" class="bg"/><path fill="#fff" fill-rule="evenodd" d="M276.433 125.861 286.61 60.35A200.7 200.7 0 0 0 255.999 58h-.158v133.65h.158c5.636 0 11.207.726 16.579 2.151l17.292-65.128a133 133 0 0 0-13.424-2.812zm-52.655 74.422-33.264-57.302h-.013c-3.921 2.284-7.749 4.752-11.405 7.419l-39.719-54.424a199 199 0 0 1 26.44-16.288l30.228 59.003a133 133 0 0 1 19.047-7.92l-20.565-63.03a198 198 0 0 1 30.228-7.286l10.573 66.541c-4.475.713-8.923 1.69-13.306 2.865l17.213 63.98a64.1 64.1 0 0 0-15.457 6.442M79.45 166.281l60.047 30.571a130.6 130.6 0 0 0-7.814 18.916L67.57 195.031a197 197 0 0 1 11.88-28.75m289.529 24.167-57.288 33.291a63.6 63.6 0 0 1 6.442 15.457l63.98-17.239c1.175 4.382 2.152 8.831 2.864 13.292l66.542-10.599a196 196 0 0 0-7.3-30.228l-63.017 20.605a131 131 0 0 0-7.933-19.048l58.991-30.267a198 198 0 0 0-16.302-26.427l-54.41 39.745a130 130 0 0 1 7.418 11.405zm-23.37-111.053.006.002v-.013zM316.852 67.53a198 198 0 0 1 28.757 11.864l-30.526 60.062a130 130 0 0 0-18.929-7.801zm4.843 74.277-33.647 58.384a64.8 64.8 0 0 1 13.359 10.23l94.353-94.671a198.5 198.5 0 0 0-23.628-20.13l-38.913 53.658a129 129 0 0 0-11.524-7.471m-121.478 82.104-58.371-33.674h-.013a134 134 0 0 1 7.485-11.51l-53.645-38.94a199.6 199.6 0 0 1 20.143-23.615l94.644 94.38a64.9 64.9 0 0 0-10.243 13.359m-71.518-1.848 65.116 17.332h-.014a64.8 64.8 0 0 0-2.151 16.606H58c0-10.283.805-20.619 2.376-30.717l65.512 10.204a130 130 0 0 1 2.811-13.425m243.804 93.084 60.046 30.571a197 197 0 0 0 11.88-28.75l-64.112-20.737a130.6 130.6 0 0 1-7.814 18.916m-84.283-3.431 33.264 57.302.013.013c3.921-2.284 7.749-4.752 11.405-7.419l39.719 54.424a199.4 199.4 0 0 1-26.44 16.289l-30.228-59.004a133 133 0 0 1-19.047 7.92l20.565 63.03a198 198 0 0 1-30.228 7.286l-10.573-66.554c4.475-.713 8.923-1.69 13.306-2.865l-17.213-63.98a64.2 64.2 0 0 0 15.457-6.442m-145.199 9.834 57.288-33.29a63.6 63.6 0 0 1-6.441-15.458l-63.981 17.24c-1.175-4.383-2.151-8.831-2.864-13.293l-66.554 10.6a196 196 0 0 0 7.3 30.228l63.016-20.605a131 131 0 0 0 7.933 19.047l-58.99 30.268a198 198 0 0 0 16.301 26.426l54.411-39.745a130 130 0 0 1-7.419-11.405zm23.368 111.054-.005-.003v.013zm0 0a198 198 0 0 0 28.758 11.864l20.697-64.126a130 130 0 0 1-18.929-7.801zm23.914-62.413.003-.005.01.005zm.003-.005 33.644-58.378a64.8 64.8 0 0 1-13.359-10.23l-94.34 94.67a198.4 198.4 0 0 0 23.628 20.13l38.913-53.658a129 129 0 0 0 11.514 7.466m121.49-82.099 58.37 33.673v.013a134 134 0 0 1-7.484 11.511l53.645 38.94a199.6 199.6 0 0 1-20.144 23.614l-94.63-94.393a64.9 64.9 0 0 0 10.243-13.358m-72.376 30.11v.004l-.013-.004zm0 .004-17.292 65.125a133 133 0 0 0 13.425 2.812l-10.177 65.511a200.6 200.6 0 0 0 30.61 2.35h.159V320.35h-.159a64.6 64.6 0 0 1-16.566-2.148m78.778-45.597a64.8 64.8 0 0 0 2.151-16.592h133.65c0 10.283-.805 20.618-2.376 30.716l-65.498-10.217c-.7 4.515-1.637 9.003-2.812 13.425z" class="fg" clip-rule="evenodd"/></svg>

<svg width="512" height="512" viewBox="0 0 512 512" fill="none" xmlns="http://www.w3.org/2000/svg">
<circle class="bg" cx="256" cy="256" r="256" fill="black"/>
<path class="fg" fill-rule="evenodd" clip-rule="evenodd" d="M276.433 125.861L286.61 60.3496C276.551 58.792 266.255 58 255.999 58H255.841V191.65H255.999C261.635 191.65 267.206 192.376 272.578 193.801L289.87 128.673C285.448 127.498 280.96 126.574 276.446 125.861H276.433ZM223.778 200.283L190.514 142.981H190.501C186.58 145.265 182.752 147.733 179.096 150.4L139.377 95.9762C147.733 89.8779 156.63 84.3999 165.817 79.6875L196.045 138.691C202.183 135.563 208.545 132.91 215.092 130.771L194.527 67.7415C204.361 64.5339 214.525 62.0787 224.755 60.4551L235.328 126.996C230.853 127.709 226.405 128.686 222.022 129.861L239.235 193.841C233.836 195.293 228.635 197.471 223.778 200.283ZM79.4504 166.281L139.497 196.852C136.408 202.924 133.782 209.287 131.683 215.768L67.5704 195.031C70.7516 185.184 74.7512 175.508 79.4504 166.281ZM368.979 190.448L311.691 223.739C314.516 228.596 316.681 233.797 318.133 239.196L382.113 221.957C383.288 226.339 384.265 230.788 384.977 235.249L451.519 224.65C449.895 214.42 447.44 204.256 444.219 194.422L381.202 215.027C379.064 208.48 376.411 202.117 373.269 195.979L432.26 165.712C427.547 156.524 422.069 147.641 415.958 139.285L361.548 179.03C364.214 182.687 366.695 186.515 368.966 190.435L368.979 190.448ZM345.609 79.3948L345.615 79.3975V79.3843L345.609 79.3948ZM316.852 67.5307C326.697 70.7113 336.371 74.6968 345.609 79.3948L315.083 139.457C308.998 136.369 302.635 133.742 296.154 131.656L316.852 67.5307ZM321.695 141.808L288.048 200.192C292.919 203.003 297.407 206.435 301.407 210.422L395.76 115.751C388.447 108.452 380.488 101.68 372.132 95.6212L333.219 149.279C329.51 146.586 325.668 144.092 321.695 141.808ZM200.217 223.912L141.846 190.238H141.833C144.13 186.278 146.625 182.437 149.318 178.728L95.6728 139.788C101.745 131.432 108.516 123.486 115.816 116.173L210.46 210.553C206.474 214.553 203.028 219.041 200.217 223.912ZM128.699 222.064L193.815 239.396H193.801C192.376 244.768 191.65 250.352 191.65 256.002H58C58 245.719 58.8052 235.383 60.376 225.285L125.888 235.489C126.587 230.975 127.524 226.486 128.699 222.064ZM372.503 315.148L432.549 345.719C437.249 336.492 441.248 326.817 444.429 316.969L380.317 296.232C378.218 302.714 375.591 309.076 372.503 315.148ZM288.22 311.717L321.484 369.019L321.497 369.032C325.418 366.748 329.246 364.28 332.902 361.613L372.621 416.037C364.265 422.135 355.368 427.613 346.181 432.326L315.953 373.322C309.815 376.45 303.453 379.103 296.906 381.242L317.471 444.272C307.637 447.479 297.473 449.934 287.243 451.558L276.67 385.004C281.145 384.291 285.593 383.314 289.976 382.139L272.763 318.159C278.162 316.707 283.362 314.529 288.22 311.717ZM143.021 321.551L200.309 288.261C197.484 283.403 195.32 278.202 193.868 272.803L129.887 290.043C128.712 285.66 127.736 281.212 127.023 276.75L60.4686 287.35C62.0922 297.58 64.5474 307.744 67.7681 317.578L130.785 296.973C132.923 303.52 135.576 309.882 138.718 316.02L79.7273 346.288C84.4397 355.475 89.9177 364.359 96.0293 372.714L150.44 332.969C147.773 329.313 145.292 325.485 143.021 321.564V321.551ZM166.389 432.605L166.384 432.602V432.615L166.389 432.605ZM166.389 432.605C175.628 437.303 185.301 441.288 195.147 444.469L215.844 380.343C209.363 378.257 203.001 375.631 196.915 372.542L166.389 432.605ZM190.303 370.192L190.306 370.187L190.316 370.192H190.303ZM190.306 370.187L223.95 311.809C219.079 308.997 214.591 305.565 210.591 301.579L116.251 396.249C123.564 403.549 131.523 410.32 139.879 416.379L178.792 362.721C182.499 365.412 186.336 367.905 190.306 370.187ZM311.796 288.088L370.166 321.761V321.774C367.869 325.734 365.375 329.576 362.682 333.285L416.327 372.225C410.255 380.58 403.483 388.527 396.183 395.839L301.553 301.446C305.539 297.447 308.984 292.959 311.796 288.088ZM239.42 318.198L239.42 318.202L239.407 318.198H239.42ZM239.42 318.202L222.128 383.327C226.55 384.502 231.038 385.426 235.553 386.139L225.376 451.65C235.434 453.208 245.73 454 255.986 454H256.145V320.35H255.986C250.354 320.35 244.788 319.625 239.42 318.202ZM318.198 272.605C319.622 267.237 320.348 261.658 320.349 256.013H453.999C453.999 266.296 453.194 276.631 451.623 286.729L386.125 276.512C385.425 281.027 384.488 285.515 383.313 289.937L318.198 272.605Z" fill="white"/>
</svg>
